cms/static/cms/icons/chevron-right.svg

<?xml version="1.0" encoding="UTF-8"?>
<svg width="24px" height="24px" viewBox="0 0 24 24" version="1.1" xmlns="http://www.w3.org/2000/svg" xmlns:xlink="http://www.w3.org/1999/xlink">
    <!-- Generator: Sketch 48.2 (47327) - http://www.bohemiancoding.com/sketch -->
    <title>Resources/icons/chevron-right</title>
    <desc>Created with Sketch.</desc>
    <defs>
        <path d="M13.5857864,12 L8.29289322,17.2928932 C7.90236893,17.6834175 7.90236893,18.3165825 8.29289322,18.7071068 C8.68341751,19.0976311 9.31658249,19.0976311 9.70710678,18.7071068 L15.7071068,12.7071068 C16.0976311,12.3165825 16.0976311,11.6834175 15.7071068,11.2928932 L9.70710678,5.29289322 C9.31658249,4.90236893 8.68341751,4.90236893 8.29289322,5.29289322 C7.90236893,5.68341751 7.90236893,6.31658249 8.29289322,6.70710678 L13.5857864,12 Z" id="path-1"></path>
    </defs>
    <g id="Symbols" stroke="none" stroke-width="1" fill="none" fill-rule="evenodd">
        <g id="Resources/icons/chevron-right">
            <mask id="mask-2" fill="white">
                <use xlink:href="#path-1"></use>
            </mask>
            <use id="Shape" fill="#000000" fill-rule="nonzero" xlink:href="#path-1"></use>
            <g id="Resources/Colour/black" mask="url(#mask-2)" fill="#000000">
                <rect id="Rectangle" x="0" y="0" width="24" height="24"></rect>
            </g>
        </g>
    </g>
</svg>

<?xml version="1.0" encoding="utf-8"?>
<!-- Generator: Adobe Illustrator 19.1.0, SVG Export Plug-In . SVG Version: 6.00 Build 0)  -->
<svg version="1.1" id="Layer_1" xmlns="http://www.w3.org/2000/svg" xmlns:xlink="http://www.w3.org/1999/xlink" x="0px" y="0px"
	 viewBox="0 0 24 24" enable-background="new 0 0 24 24" xml:space="preserve">
<path id="path-1_1_" fill="#010101" d="M13.6,12l-5.3,5.3c-0.4,0.4-0.4,1,0,1.4c0.4,0.4,1,0.4,1.4,0l6-6c0.4-0.4,0.4-1,0-1.4l-6-6
	c-0.4-0.4-1-0.4-1.4,0c-0.4,0.4-0.4,1,0,1.4L13.6,12z"/>
<g>
	<path id="path-1" fill="#010101" d="M13.6,12l-5.3,5.3c-0.4,0.4-0.4,1,0,1.4c0.4,0.4,1,0.4,1.4,0l6-6c0.4-0.4,0.4-1,0-1.4l-6-6
		c-0.4-0.4-1-0.4-1.4,0c-0.4,0.4-0.4,1,0,1.4L13.6,12z"/>
</g>
</svg>
